X:1
T:Bonnie Annie -- Clog
R:clog
B:Ryan's Mammoth Collection
N: 158 942
O:SCOTCH
Z: Contributed by Ray Davies,  ray:davies99.freeserve.co.uk
M:C|
L:1/8
K:E
u(g>.a)|\
(b>.g)(a.>f) "^SEGUE"e>gf>e | d>ef>d B>cB>A |\
 G>B"4"e>^d c>fa>f | e3(f/e/) d>fg>a |
b>ga>f e>gf>e | d>ef>d B>cB>A | G>B"4"e>^d c>af>^d |\
 e2g2E2 H:|
|:u(d>.e)|\
(f>.B)(B>.B) "^SEGUE"B>fg>a | g>ee>e e>fg>a |\
 b>ge>g a>gf>e | d>bc>^a b>ed>e |
f>BB>B B>fg>a | g>ee>e e>fg>^a | b>fg>e d>fe>c |\
 B2 d2 B2 "_D.C.":|
